X:1
T:Title
%%score ( 1 2 ) { 3 | 4 }
L:1/8
Q:1/4=85
M:6/8
K:Ab
V:1 treble nm="Grand Piano, Soprano"
V:2 treble 
V:3 bass nm="Choir Pad, Minsk, William T. Meyer"
V:4 bass 
V:1
 E/E/ [CF]2 [CF] [CA]2 | [CA] [DG]2- [DG]2- [DG]/ z/ | [EG]/[EG]/ [EA]2 [EA] [DGBd]2 | %3
w: By~William~T.~Meyer,~1912 * * * *|||
 [DGBd] [CEAc]2- [CEAc]2- [CEAc]/ z/ | [EAc]/[EAc]/ [=EAc]2 [EGB] [EA]2 | %5
w: ||
 [=EG] [CFA]2- [CFA]2- [CFA]/ z/ | [CFAc]/[CFAc]/ [=DFAB]2 [DFAc] [DFAB]2 | %7
w: ||
 [=DF] [_DEGB]2- [DEGB]2- [DEGB]/ z/ | E/E/ [CF]2 [CF] [CA]2 | [CA] [DG]2- [DG]2- [DG]/ z/ | %10
w: |||
 [EG]/[EG]/ [EA]2 [EA] [DFAd]2 | [CEAc] [B,EGB]2- [B,EGB]2- [B,EGB]/ z/ | %12
w: ||
 [CAc]/[DBd]/ [Ece]2 [CAc] [B,GB]2 | [CGc] [A,FA]2- [A,FA] [DFd]2 | %14
w: ||
 [DFA]/[D=EB]/ [C_EAc]2 [CE] [DEGB]2 | [CEA] [CEA]2- [CEA]2- [CEA]/ z/ | %16
w: ||
 [Ac]/[Ad]/ [Ae]2 [Ac][GB][FA] | [GB] [Ac]2- [Ac]2- [Ac]/ z/ | [Ac]/[Ad]/ [Ae]2 [Ac]AB | %19
w: |||
 .[Ac]3 .A3 | [EA]/[EB]<[Ac]_c/ [A=c]E-[EB] | z d2- d2- d/ z/ | [FA]/[=EB]/ [_Ec]2 [CE] [DB]2 | %23
w: ||||
 [CA] [CA]2- [CA]3- | [CA]3 z3 |] %25
w: ||
V:2
 x6 | x6 | x6 | x6 | x6 | x6 | x6 | x6 | x6 | x6 | x6 | x6 | x6 | x6 | x6 | x6 | x6 | x6 | x6 | %19
 z [GB]2- [GB]2- [GB]/ z/ | z3 z .A2 | [Ec] D2- D F2 | x6 | x6 | x6 |] %25
V:3
 E,/E,/ F,2 F, A,2 | A, G,2- G,2- G,/ z/ | z A,2 A, B,,2 | E, A,,2 E, A,2 | A, C,2 G, C2 | %5
 C, F,,2 C, F,2 | F, B,,2 F, B,2 | B,, E,,2 B,, E,2 | E,/E,/ F,2 F, A,2 | A, G,2- G,2- G,/ z/ | %10
 z A,2 A, D,2- | D, E,,2 B,, E,2 | z A,2- A, E,2 | =E, F,2- F, B,,2 | D, E,2- E, E,2- | %15
 E, A,,2- A,,2- A,,/ z/ | A,/B,/[K:treble] C2 E E2 | E E2 E E2 | A,/B,/ C2 E =D2 | =D E2 D _D2 | %20
 D/D<E=D/ EC[K:bass]B, | A, A,2 A, A,2 | A,/A,/ A,2 A, G,2 | A, A,2- A,3- | A,3 z3 |] %25
V:4
 z A,,2- A,,/ z/ E,2- | E, B,,2 F, E,2 | G,/G,/ C,2- C,/ z/ z z | z6 | .A,,3 z3 | z6 | .F,,3 z3 | %7
 z6 | z A,,2- A,,/ z/ E,2- | E, B,,2 E, E,2 | G,/G,/ C,2- C,/ z/ D,,2- | D,,3 z3 | %12
 z A,,2- A,, E,,2 | =E,, F,,2- F,, B,,,2 | D,, E,,2- E,, E,,2- | E,,3 z3 | z/ A,/ A,2 A, E,2 | %17
 E, A,2 E, A,2 | z/ A,/ A,2 A, F,2 | B,, E,2 F, E,2 | B,/A,/ A,2 A,A,G, | G, F,2 F, D,2 | %22
 D,/D,/ E,2 E, E,2 | E, A,,2- A,,3- | A,,3 z3 |] %25

